img/svg_icons/fb.svg

<svg width="25" height="25" viewBox="0 0 25 25" fill="none" xmlns="http://www.w3.org/2000/svg">
<path fill-rule="evenodd" clip-rule="evenodd" d="M21.4083 0.132527C23.0409 0.142989 24.3578 1.47695 24.3473 3.10949L24.2301 21.4046C24.2196 23.0371 22.8857 24.3541 21.2531 24.3436L16.2185 24.3114L16.277 15.1889L19.4263 15.2091L20.0506 11.306L16.302 11.282L16.3183 8.74661C16.3251 7.67778 16.8554 6.63925 18.5344 6.65001L20.2388 6.66093L20.2601 3.33474C20.2601 3.33474 18.715 3.06087 17.2362 3.0514C14.1489 3.03161 12.1191 4.88979 12.0974 8.27722L12.0783 11.255L8.64653 11.233L8.62149 15.1399L12.0533 15.1619L11.9948 24.2843L2.95802 24.2264C1.32547 24.216 0.00850067 22.882 0.018962 21.2494L0.136196 2.95435C0.146658 1.3218 1.48057 0.00483113 3.11316 0.0152928L21.4083 0.132527V0.132527Z" fill="white"/>
</svg>

<svg width="25" height="25" fill="none" xmlns="http://www.w3.org/2000/svg"><path fill-rule="evenodd" clip-rule="evenodd" d="M21.408.133a2.96 2.96 0 012.94 2.976l-.118 18.296a2.96 2.96 0 01-2.977 2.939l-5.035-.033.059-9.122 3.15.02.624-3.903-3.749-.024.016-2.535c.007-1.07.537-2.108 2.216-2.097l1.705.01.021-3.325s-1.545-.274-3.024-.284c-3.087-.02-5.117 1.839-5.139 5.226l-.019 2.978-3.431-.022-.026 3.907 3.432.022-.058 9.122-9.037-.058A2.96 2.96 0 01.019 21.25L.136 2.954A2.96 2.96 0 013.113.015l18.295.118z" fill="#fff"/></svg>
